X: 1
T: the Twenty-Ninth of May
R: reel
O: trad England
Z: John Chambers <jc@trillian.mit.edu>
N: Country dance version of the hymn All Things Bright and Beautiful"
B: Hunt p.14 #45; Raven p.25
M: C|
L: 1/8
K: D
|: "D"a2f2 g2f2 | "A"edcB "D"A2f2 | "G"g2B2 "A7"~c3B/c/ | "D"d2A2 F2ED :|
|| "D"F2A2 A2GF | "G"GA B4 B2 | "A7"cde2 cde2 | c2Bc A2de |
| "D"f2ef d2ef | "G"g2fg "Em"e2fg | "A7"a2B2 ~c3 B/c/ | "D"d2A2 F2ED |]
